X: 1202
T: Kanatları Gümüş Yavru Bir Kuş
C: Mesut Cemil
O: Turkey
F: http://compmusic.upf.edu/node/140
N: nihavent--sarki--semai--kanatlari_gumus--mesut_cemil
N: makam= nihavent
N: form= sarki
N: usul= semai = 3/4
M: 3/4
L: 1/16
K: C _B _e  
Q: 1/4=90
%%MIDI tuningsystem comma53
G12  | G12  | B12  | A8 z4  | G12  | d12  | g12  | g12  | \
w:  GİRİŞ  |   |   |   |   |   |   |   | 
G4 B8  | c4 d8  | f2d2 d8  | c2B2 c8  | B2A2 B8  | 
w:  Ka nat  |  la rı   |  gü *  müş   |  yav *  ru   |  bir   | 
A2G2 A8  | G12  | G12  | g4 ^f8  | g4 d8  | c4 B8  | \
w:  kuş    |  hey    |   |  Ge mi  |  mi zin   |  di re  | 
c4 d8  | f4 d8  | c2B2 c8  | B12  | B12  | G8 B2_d2  | 
w:  ği ne   |  kon  |  muş    |  hey    |   |  Dağ la ra   | 
=e4 g8  | b12  | b12  | a4 {a}g8  | d4 g8  | d4 e4 g4  | \
w:  çık ma   |  hey   |   |  Ka *  ra  |  de niz    |  hey   | 
f4 e4 d4  | c12  | c12  | B4 B8  | c4 d8  | f2d2 d8  | 
w:   |  hey   |   |  Yav ru  |  dur  yâ  |  rim  *  u  | 
c2B2 c8  | B2A2 B8  | A2G2 A8  | G12  | G12  | \
w:  ça *  maz   |  ben *  siz    |   |  hey    |   | 
G4 B8  | c4 d8  | f2d2 d8  | c2B2 c8  | 
w:  Ka nat  |  la rı   |  gü *  müş   |  yav *  ru   | 
B2A2 B8  | A2G2 A8  | G12  | G12  | g4 ^f8  | \
w:  bir   |  kuş    |  hey    |   |  Ge mi  | 
g4 d8  | c4 B8  | c4 d8  | f4 d8  | c2B2 c8  | 
w:  mi zin   |  di re  |  ği ne   |  kon  |  muş    | 
B12  | B12  | G8 B2_d2  | =e4 g8  | b12  | b12  | \
w:  hey    |   |  Dağ la ra   |  çık ma   |  hey   |   | 
a4 {a}g8  | d4 g8  | d4 e4 g4  | f4 e4 d4  | c12  | c12  | 
w:  Ka *  ra  |  de niz    |  hey   |   |  hey   |   | 
B4 B8  | c4 d8  | f2d2 d8  | c2B2 c8  | B2A2 B8  | \
w:  Yav ru  |  dur  yâ  |  rim  *  u  |  ça *  maz   |  ben *  siz    | 
A2G2 A8  | G12  | G12  | g12  | g12  | |


